X:1
T:Uns ist ein Kindlein heut geborn
T:Michael Praetorius
T:Uns ist ein Kindlein heut geborn
T:Nr. 47 aus Musae Sioniae VI
T:CPDL - Creative Commons Attribution Non Commercial 3.0
C:Michael Praetorius
Z:CPDL - Creative Commons Attribution Non Commercial 3.0
%%score [ 1 2 3 4 ]
L:1/8
M:6/4
K:F
V:1 treble nm="Sopran"
V:2 treble nm="Alt"
V:3 treble-8 nm="Tenor"
V:4 bass nm="Bass"
V:1
 F2 c2 c2 c4 c2 | d4 =B2 c4 z2 | f4 d2 c4 z2 | f4 e2 d4 c2 | c2 =B4 c4 z2 | c4 B2 A4 z2 | %6
w: 1.~Uns ist ein Kind- lein|heut ge- born,|Gott mit uns,|von ein'r Jung- fraun|aus- er- korn,|Gott mit uns,|
 F4 G2 A4 B2 | c4 A2 B4 G2 | F16 |] %9
w: Gott mit uns, wer|will sein wi- der|uns?|
V:2
 C2 C2 G2 F4 E2 | G4 G2 E4 z2 | F4 G2 A4 z2 | A4 A2 F2 D2 G2 | A2 G4 G4 z2 | A4 F2 F4 z2 | %6
w: 2.~Auch ist ge- ge- ben|uns ein Sohn,|Gott mit uns,|von dem him- * me-|li- schen Thron,|Gott mit uns,|
 A2 F2 D2 F4 F2 | G4 F2 F4 E2 | C16 |] %9
w: Gott _ mit uns, wer|will sein wi- der|uns?|
V:3
 A2 A2 G2 A4 c2 | =B4 d2 c4 z2 | A4 B2 c4 z2 | d4 c2 d2 f2 e2 | f2 d4 e4 z2 | e4 d2 c4 z2 | %6
w: 3.~All sein Herr- schaft und|Ma- jes- tät,|Gott mit uns,|auf sei- ner _ Schul-|ter be- steht,|Gott mit uns,|
 d2 A2 B2 c4 d2 | e4 d2 d2 c4 | A16 |] %9
w: Gott _ mit uns, wer|will sein wi- der|uns?|
V:4
 F,2 F,2 E,2 F,4 A,2 | G,4 G,2 C,4 z2 | D,4 B,,2 F,4 z2 | D,4 A,2 B,4 C2 | F,2 G,4 C4 z2 | %5
w: 10.~Ihm sei Lob, Ehr und|Preis be- reit,|Gott mit uns,|von~nun an bis in|E- wig- keit,|
 A,4 B,2 F,4 z2 | D,4 G,2 F,4 D,2 | C,4 D,2 B,,2 C,4 | F,16 |] %9
w: Gott mit uns,|Gott mit uns, wer|will sein wi- der|uns?|

